Newaita-dark/apps/32/com.github.danrabbit.nimbus.svg

<svg height="32" viewBox="0 0 32 32" width="32" xmlns="http://www.w3.org/2000/svg" xmlns:xlink="http://www.w3.org/1999/xlink"><linearGradient id="a"><stop offset="0" stop-opacity=".313726"/><stop offset=".222222" stop-opacity=".27451"/><stop offset="1" stop-opacity="0"/></linearGradient><radialGradient id="b" cx="450.908936" cy="189.579361" gradientTransform="matrix(.00000017 -.0781325 -.140638 -.0000001 44.523152 63.595329)" gradientUnits="userSpaceOnUse" r="21.166656" xlink:href="#a"/><radialGradient id="c" cx="450.908936" cy="189.579361" gradientTransform="matrix(-.00000017 .0781325 .140638 .0000001 -12.770119 -7.527482)" gradientUnits="userSpaceOnUse" r="21.166656" xlink:href="#a"/><radialGradient id="d" cx="450.908936" cy="189.579361" gradientTransform="matrix(-.00000017 -.0781325 .140638 -.0000001 -12.770119 63.595329)" gradientUnits="userSpaceOnUse" r="21.166656" xlink:href="#a"/><radialGradient id="e" cx="450.908936" cy="189.579361" gradientTransform="matrix(.00000017 .0781325 -.140638 .0000001 44.52315 -7.527483)" gradientUnits="userSpaceOnUse" r="21.166656" xlink:href="#a"/><linearGradient id="f" gradientTransform="matrix(.0133601 0 0 .062506 12.465386 13.438784)" gradientUnits="userSpaceOnUse" x1="255.323059" x2="255.323044" y1="233.5" y2="254.666656"><stop offset="0" stop-opacity=".27451"/><stop offset="1" stop-opacity="0"/></linearGradient><linearGradient id="g" gradientUnits="userSpaceOnUse" x1="15.876524" x2="15.876524" y1="2.89610399997" y2="28.033934"><stop offset="0" stop-color="#64b5f6"/><stop offset="1" stop-color="#42a5f5"/></linearGradient><linearGradient id="h" gradientUnits="userSpaceOnUse" x1="15.87648" x2="15.87648" y1="28.03386419623" y2="2.89610370009"><stop offset="0" stop-color="#bdbdbd"/><stop offset="1" stop-color="#e0e0e0"/></linearGradient><path d="m18.191406 28.035156h2.648438v-1.324218h-2.648438zm0 0" fill="url(#b)"/><path d="m13.5625 28.035156h-2.648438v1.320313h2.648438zm0 0" fill="url(#c)"/><path d="m13.5625 28.035156h-2.648438v-1.324218h2.648438zm0 0" fill="url(#d)"/><path d="m18.191406 28.035156h2.648438v1.320313h-2.648438zm0 0" fill="url(#e)"/><path d="m13.5625 27.703125h4.628906v1.652344h-4.628906zm0 0" fill="url(#f)"/><path d="m15.875 2.894531c6.941406 0 12.570312 5.628907 12.570312 12.570313s-5.628906 12.570312-12.570312 12.570312-12.566406-5.628906-12.566406-12.570312 5.625-12.570313 12.566406-12.570313zm0 0" fill="url(#g)"/><path d="m15.875 28.035156c-6.960938 0-12.566406-5.605468-12.566406-12.570312 0-.039063 0-.082032 0-.121094.066406 6.902344 5.644531 12.445312 12.566406 12.445312s12.503906-5.542968 12.570312-12.445312v.121094c0 6.964844-5.605468 12.570312-12.570312 12.570312zm0 0" fill-opacity=".196078"/><path d="m15.875 2.894531c-6.960938 0-12.566406 5.605469-12.566406 12.570313v.125c.066406-6.90625 5.644531-12.449219 12.566406-12.449219s12.503906 5.542969 12.570312 12.449219c0-.042969 0-.082032 0-.125 0-6.964844-5.605468-12.570313-12.570312-12.570313zm0 0" fill="#fff" fill-opacity=".392157"/><path d="m15.875 2.800781c-7.011719 0-12.660156 5.652344-12.660156 12.664063 0 7.011718 5.648437 12.664062 12.660156 12.664062 7.015625 0 12.664062-5.652344 12.664062-12.664062 0-7.011719-5.648437-12.664063-12.664062-12.664063zm0 .1875c6.914062 0 12.476562 5.5625 12.476562 12.476563 0 6.914062-5.5625 12.476562-12.476562 12.476562-6.910156 0-12.472656-5.5625-12.472656-12.476562 0-6.914063 5.5625-12.476563 12.472656-12.476563zm0 0" fill="#212121"/><path d="m17.53125 8.851562c-1.765625 0-3.226562 1.242188-3.566406 2.902344-.316406-.164062-.679688-.257812-1.066406-.257812-1.28125 0-2.3125 1.03125-2.3125 2.316406 0 .164062.015624.324219.046874.480469-1.183593.394531-2.03125 1.507812-2.03125 2.824219 0 1.652343 1.324219 2.976562 2.976563 2.976562h8.929687v-.015625c1.492188-.164063 2.644532-1.421875 2.644532-2.960937 0-1.453126-1.03125-2.65625-2.40625-2.921876.269531-.507812.421875-1.089843.421875-1.707031 0-2.015625-1.621094-3.636719-3.636719-3.636719zm0 0" fill="url(#h)"/><path d="m17.53125 8.851562c-1.765625 0-3.226562 1.242188-3.566406 2.902344-.316406-.164062-.679688-.257812-1.066406-.257812-1.28125 0-2.3125 1.03125-2.3125 2.316406 0 .066406 0 .136719.007812.203125.105469-1.183594 1.09375-2.105469 2.304688-2.105469.386718 0 .75.09375 1.066406.257813.339844-1.660157 1.800781-2.90625 3.566406-2.90625 1.945312 0 3.523438 1.515625 3.632812 3.433593.003907-.070312.003907-.136718.003907-.207031 0-2.015625-1.621094-3.636719-3.636719-3.636719zm3.46875 5.40625c-.066406.207032-.152344.410157-.253906.601563.058594.007813.117187.023437.171875.035156.03125-.074219.054687-.148437.082031-.226562 1.179688.339843 2.058594 1.386719 2.144531 2.65625.007813-.066407.007813-.136719.007813-.207031 0-1.363282-.90625-2.503907-2.152344-2.859376zm-10.414062.050782c-1.160157.40625-1.984376 1.507812-1.984376 2.808594 0 .070312 0 .140624.003907.207031.085937-1.210938.886719-2.21875 1.984375-2.601563-.003906.054688-.003906.109375-.003906.164063v.085937c.015624-.007812.03125-.011718.046874-.019531-.03125-.152344-.046874-.316406-.046874-.480469 0-.042968 0-.082031.003906-.125-.003906-.011718-.003906-.023437-.003906-.039062zm0 0" fill="#fff"/><path d="m21.152344 12.828125c-.042969.492187-.1875.953125-.40625 1.367187.085937.019532.171875.039063.257812.0625.105469-.34375.164063-.710937.164063-1.089843 0-.113281-.003907-.226563-.015625-.339844zm-10.542969 1.324219c-.007813.050781-.015625.101562-.019531.15625.015625-.003906.03125-.011719.042968-.015625-.007812-.046875-.015624-.09375-.023437-.140625zm-1.992187 3.304687c-.011719.113281-.015626.226563-.015626.339844 0 1.652344 1.324219 2.980469 2.976563 2.980469h8.929687v-.019532c1.492188-.164062 2.644532-1.421874 2.644532-2.960937 0-.113281-.003906-.226563-.019532-.339844-.152343 1.382813-1.246093 2.46875-2.625 2.621094v.015625h-8.929687c-1.535156 0-2.792969-1.148438-2.960937-2.636719zm0 0" fill-opacity=".235294"/><path d="m1060.056306 535.224507c-106.761464 0-195.09949 75.110942-215.64871 175.495062-19.132032-9.920313-41.098439-15.589064-64.482034-15.589064-77.472921 0-139.829174 62.356254-139.829174 140.065372 0 9.920313.944792 19.604428 2.834375 29.052346-71.567973 23.85599-122.822923 91.1724-122.822923 170.771102 0 99.911724 80.071098 179.982822 179.982822 179.982822h539.948466v-.944792c90.227609-9.920313 159.905998-85.976046 159.905998-179.03803 0-87.865629-62.356254-160.614592-145.497925-176.676051 16.297657-30.70573 25.509377-65.899222 25.509377-103.218495 0-121.878131-98.022141-219.900272-219.900272-219.900272zm0 0" fill="none" stroke="#212121" stroke-linecap="round" stroke-linejoin="round" stroke-width="11.338583" transform="scale(.016538)"/></svg>

<?xml version="1.0" encoding="UTF-8"?>
<svg xmlns="http://www.w3.org/2000/svg" xmlns:xlink="http://www.w3.org/1999/xlink" width="32px" height="32px" viewBox="0 0 32 32" version="1.1">
<defs>
<radialGradient id="radial0" gradientUnits="userSpaceOnUse" cx="450.908936" cy="189.579361" fx="450.908936" fy="189.579361" r="21.166656" gradientTransform="matrix(0.00000017417,-0.0781325,-0.140638,-0.000000101539,44.523152,63.595329)">
<stop offset="0" style="stop-color:rgb(0%,0%,0%);stop-opacity:0.313726;"/>
<stop offset="0.222222" style="stop-color:rgb(0%,0%,0%);stop-opacity:0.27451;"/>
<stop offset="1" style="stop-color:rgb(0%,0%,0%);stop-opacity:0;"/>
</radialGradient>
<radialGradient id="radial1" gradientUnits="userSpaceOnUse" cx="450.908936" cy="189.579361" fx="450.908936" fy="189.579361" r="21.166656" gradientTransform="matrix(-0.00000017417,0.0781325,0.140638,0.000000101539,-12.770119,-7.527482)">
<stop offset="0" style="stop-color:rgb(0%,0%,0%);stop-opacity:0.313726;"/>
<stop offset="0.222222" style="stop-color:rgb(0%,0%,0%);stop-opacity:0.27451;"/>
<stop offset="1" style="stop-color:rgb(0%,0%,0%);stop-opacity:0;"/>
</radialGradient>
<radialGradient id="radial2" gradientUnits="userSpaceOnUse" cx="450.908936" cy="189.579361" fx="450.908936" fy="189.579361" r="21.166656" gradientTransform="matrix(-0.00000017417,-0.0781325,0.140638,-0.000000101539,-12.770119,63.595329)">
<stop offset="0" style="stop-color:rgb(0%,0%,0%);stop-opacity:0.313726;"/>
<stop offset="0.222222" style="stop-color:rgb(0%,0%,0%);stop-opacity:0.27451;"/>
<stop offset="1" style="stop-color:rgb(0%,0%,0%);stop-opacity:0;"/>
</radialGradient>
<radialGradient id="radial3" gradientUnits="userSpaceOnUse" cx="450.908936" cy="189.579361" fx="450.908936" fy="189.579361" r="21.166656" gradientTransform="matrix(0.00000017417,0.0781325,-0.140638,0.000000101539,44.52315,-7.527483)">
<stop offset="0" style="stop-color:rgb(0%,0%,0%);stop-opacity:0.313726;"/>
<stop offset="0.222222" style="stop-color:rgb(0%,0%,0%);stop-opacity:0.27451;"/>
<stop offset="1" style="stop-color:rgb(0%,0%,0%);stop-opacity:0;"/>
</radialGradient>
<linearGradient id="linear0" gradientUnits="userSpaceOnUse" x1="255.323059" y1="233.5" x2="255.323044" y2="254.666656" gradientTransform="matrix(0.0133601,0,0,0.062506,12.465386,13.438784)">
<stop offset="0" style="stop-color:rgb(0%,0%,0%);stop-opacity:0.27451;"/>
<stop offset="1" style="stop-color:rgb(0%,0%,0%);stop-opacity:0;"/>
</linearGradient>
<linearGradient id="linear1" gradientUnits="userSpaceOnUse" x1="254" y1="-168.666672" x2="254" y2="233.5" gradientTransform="matrix(0.062506,0,0,0.062506,0,13.438783)">
<stop offset="0" style="stop-color:rgb(39.215687%,70.980394%,96.470588%);stop-opacity:1;"/>
<stop offset="1" style="stop-color:rgb(25.882354%,64.705884%,96.078432%);stop-opacity:1;"/>
</linearGradient>
<linearGradient id="linear2" gradientUnits="userSpaceOnUse" x1="960" y1="1695.118164" x2="960" y2="175.118134" gradientTransform="matrix(0.016538,0,0,0.016538,0,0)">
<stop offset="0" style="stop-color:rgb(74.117649%,74.117649%,74.117649%);stop-opacity:1;"/>
<stop offset="1" style="stop-color:rgb(87.843138%,87.843138%,87.843138%);stop-opacity:1;"/>
</linearGradient>
</defs>
<g id="surface1">
<path style=" stroke:none;fill-rule:nonzero;fill:url(#radial0);" d="M 18.191406 28.035156 L 20.839844 28.035156 L 20.839844 26.710938 L 18.191406 26.710938 Z M 18.191406 28.035156 "/>
<path style=" stroke:none;fill-rule:nonzero;fill:url(#radial1);" d="M 13.5625 28.035156 L 10.914062 28.035156 L 10.914062 29.355469 L 13.5625 29.355469 Z M 13.5625 28.035156 "/>
<path style=" stroke:none;fill-rule:nonzero;fill:url(#radial2);" d="M 13.5625 28.035156 L 10.914062 28.035156 L 10.914062 26.710938 L 13.5625 26.710938 Z M 13.5625 28.035156 "/>
<path style=" stroke:none;fill-rule:nonzero;fill:url(#radial3);" d="M 18.191406 28.035156 L 20.839844 28.035156 L 20.839844 29.355469 L 18.191406 29.355469 Z M 18.191406 28.035156 "/>
<path style=" stroke:none;fill-rule:nonzero;fill:url(#linear0);" d="M 13.5625 27.703125 L 18.191406 27.703125 L 18.191406 29.355469 L 13.5625 29.355469 Z M 13.5625 27.703125 "/>
<path style=" stroke:none;fill-rule:nonzero;fill:url(#linear1);" d="M 15.875 2.894531 C 22.816406 2.894531 28.445312 8.523438 28.445312 15.464844 C 28.445312 22.40625 22.816406 28.035156 15.875 28.035156 C 8.933594 28.035156 3.308594 22.40625 3.308594 15.464844 C 3.308594 8.523438 8.933594 2.894531 15.875 2.894531 Z M 15.875 2.894531 "/>
<path style=" stroke:none;fill-rule:nonzero;fill:rgb(0%,0%,0%);fill-opacity:0.196078;" d="M 15.875 28.035156 C 8.914062 28.035156 3.308594 22.429688 3.308594 15.464844 C 3.308594 15.425781 3.308594 15.382812 3.308594 15.34375 C 3.375 22.246094 8.953125 27.789062 15.875 27.789062 C 22.796875 27.789062 28.378906 22.246094 28.445312 15.34375 C 28.445312 15.382812 28.445312 15.425781 28.445312 15.464844 C 28.445312 22.429688 22.839844 28.035156 15.875 28.035156 Z M 15.875 28.035156 "/>
<path style=" stroke:none;fill-rule:nonzero;fill:rgb(100%,100%,100%);fill-opacity:0.392157;" d="M 15.875 2.894531 C 8.914062 2.894531 3.308594 8.5 3.308594 15.464844 C 3.308594 15.507812 3.308594 15.546875 3.308594 15.589844 C 3.375 8.683594 8.953125 3.140625 15.875 3.140625 C 22.796875 3.140625 28.378906 8.683594 28.445312 15.589844 C 28.445312 15.546875 28.445312 15.507812 28.445312 15.464844 C 28.445312 8.5 22.839844 2.894531 15.875 2.894531 Z M 15.875 2.894531 "/>
<path style=" stroke:none;fill-rule:nonzero;fill:rgb(12.941177%,12.941177%,12.941177%);fill-opacity:1;" d="M 15.875 2.800781 C 8.863281 2.800781 3.214844 8.453125 3.214844 15.464844 C 3.214844 22.476562 8.863281 28.128906 15.875 28.128906 C 22.890625 28.128906 28.539062 22.476562 28.539062 15.464844 C 28.539062 8.453125 22.890625 2.800781 15.875 2.800781 Z M 15.875 2.988281 C 22.789062 2.988281 28.351562 8.550781 28.351562 15.464844 C 28.351562 22.378906 22.789062 27.941406 15.875 27.941406 C 8.964844 27.941406 3.402344 22.378906 3.402344 15.464844 C 3.402344 8.550781 8.964844 2.988281 15.875 2.988281 Z M 15.875 2.988281 "/>
<path style=" stroke:none;fill-rule:nonzero;fill:url(#linear2);" d="M 17.53125 8.851562 C 15.765625 8.851562 14.304688 10.09375 13.964844 11.753906 C 13.648438 11.589844 13.285156 11.496094 12.898438 11.496094 C 11.617188 11.496094 10.585938 12.527344 10.585938 13.8125 C 10.585938 13.976562 10.601562 14.136719 10.632812 14.292969 C 9.449219 14.6875 8.601562 15.800781 8.601562 17.117188 C 8.601562 18.769531 9.925781 20.09375 11.578125 20.09375 L 20.507812 20.09375 L 20.507812 20.078125 C 22 19.914062 23.152344 18.65625 23.152344 17.117188 C 23.152344 15.664062 22.121094 14.460938 20.746094 14.195312 C 21.015625 13.6875 21.167969 13.105469 21.167969 12.488281 C 21.167969 10.472656 19.546875 8.851562 17.53125 8.851562 Z M 17.53125 8.851562 "/>
<path style=" stroke:none;fill-rule:nonzero;fill:rgb(100%,100%,100%);fill-opacity:1;" d="M 17.53125 8.851562 C 15.765625 8.851562 14.304688 10.09375 13.964844 11.753906 C 13.648438 11.589844 13.285156 11.496094 12.898438 11.496094 C 11.617188 11.496094 10.585938 12.527344 10.585938 13.8125 C 10.585938 13.878906 10.585938 13.949219 10.59375 14.015625 C 10.699219 12.832031 11.6875 11.910156 12.898438 11.910156 C 13.285156 11.910156 13.648438 12.003906 13.964844 12.167969 C 14.304688 10.507812 15.765625 9.261719 17.53125 9.261719 C 19.476562 9.261719 21.054688 10.777344 21.164062 12.695312 C 21.167969 12.625 21.167969 12.558594 21.167969 12.488281 C 21.167969 10.472656 19.546875 8.851562 17.53125 8.851562 Z M 21 14.257812 C 20.933594 14.464844 20.847656 14.667969 20.746094 14.859375 C 20.804688 14.867188 20.863281 14.882812 20.917969 14.894531 C 20.949219 14.820312 20.972656 14.746094 21 14.667969 C 22.179688 15.007812 23.058594 16.054688 23.144531 17.324219 C 23.152344 17.257812 23.152344 17.1875 23.152344 17.117188 C 23.152344 15.753906 22.246094 14.613281 21 14.257812 Z M 10.585938 14.308594 C 9.425781 14.714844 8.601562 15.816406 8.601562 17.117188 C 8.601562 17.1875 8.601562 17.257812 8.605469 17.324219 C 8.691406 16.113281 9.492188 15.105469 10.589844 14.722656 C 10.585938 14.777344 10.585938 14.832031 10.585938 14.886719 C 10.585938 14.914062 10.585938 14.941406 10.585938 14.972656 C 10.601562 14.964844 10.617188 14.960938 10.632812 14.953125 C 10.601562 14.800781 10.585938 14.636719 10.585938 14.472656 C 10.585938 14.429688 10.585938 14.390625 10.589844 14.347656 C 10.585938 14.335938 10.585938 14.324219 10.585938 14.308594 Z M 10.585938 14.308594 "/>
<path style=" stroke:none;fill-rule:nonzero;fill:rgb(0%,0%,0%);fill-opacity:0.235294;" d="M 21.152344 12.828125 C 21.109375 13.320312 20.964844 13.78125 20.746094 14.195312 C 20.832031 14.214844 20.917969 14.234375 21.003906 14.257812 C 21.109375 13.914062 21.167969 13.546875 21.167969 13.167969 C 21.167969 13.054688 21.164062 12.941406 21.152344 12.828125 Z M 10.609375 14.152344 C 10.601562 14.203125 10.59375 14.253906 10.589844 14.308594 C 10.605469 14.304688 10.621094 14.296875 10.632812 14.292969 C 10.625 14.246094 10.617188 14.199219 10.609375 14.152344 Z M 8.617188 17.457031 C 8.605469 17.570312 8.601562 17.683594 8.601562 17.796875 C 8.601562 19.449219 9.925781 20.777344 11.578125 20.777344 L 20.507812 20.777344 L 20.507812 20.757812 C 22 20.59375 23.152344 19.335938 23.152344 17.796875 C 23.152344 17.683594 23.148438 17.570312 23.132812 17.457031 C 22.980469 18.839844 21.886719 19.925781 20.507812 20.078125 L 20.507812 20.09375 L 11.578125 20.09375 C 10.042969 20.09375 8.785156 18.945312 8.617188 17.457031 Z M 8.617188 17.457031 "/>
<path style="fill:none;stroke-width:11.338583;stroke-linecap:round;stroke-linejoin:round;stroke:rgb(12.941177%,12.941177%,12.941177%);stroke-opacity:1;stroke-miterlimit:4;" d="M 1060.056306 535.224507 C 953.294842 535.224507 864.956816 610.335449 844.407596 710.719569 C 825.275564 700.799256 803.309157 695.130505 779.925562 695.130505 C 702.452641 695.130505 640.096388 757.486759 640.096388 835.195877 C 640.096388 845.11619 641.04118 854.800305 642.930763 864.248223 C 571.36279 888.104213 520.10784 955.420623 520.10784 1035.019325 C 520.10784 1134.931049 600.178938 1215.002147 700.090662 1215.002147 L 1240.039128 1215.002147 L 1240.039128 1214.057355 C 1330.266737 1204.137042 1399.945126 1128.081309 1399.945126 1035.019325 C 1399.945126 947.153696 1337.588872 874.404733 1254.447201 858.343274 C 1270.744858 827.637544 1279.956578 792.444052 1279.956578 755.124779 C 1279.956578 633.246648 1181.934437 535.224507 1060.056306 535.224507 Z M 1060.056306 535.224507 " transform="matrix(0.016538,0,0,0.016538,0,0)"/>
</g>
</svg>
